!!!OTL: ES STAND EINE LINDE IM TIEFEN TAL
!!!ARE: Europa, Mitteleuropa, Deutschland
!!!SCT: F0135
!!!YEM: Copyright 1995, estate of Helmut Schaffrath.
**kern
*ICvox
*Ivox
*M2/4
*k[]
*C:
{8G
=1
8c
16c
16c
16c
16e
16g
16e
=2
8.d
16c
8B}
{8d
=3
8c
8A
8A
8c
=4
8.G
16F
8E}
{8G
=5
8c
8c
8d
16c
16d
=6
4e
4d
=7
4c
8r}
{8c
=8
8d
16d
16d
8d
8e
=9
8.d
16c
8B}
{16B
16c
=10
8d
8d
8d
8e
=11
8.d
16c
8B}
{8G
=12
8c
8c
8d
16c
16d
=13
4e
4d
=14
4c
8r}
==
!!!AGN: Liebes - Lied, Treue
!!!ONB: ESAC (Essen Associative Code) Database: FINK
!!!AMT: simple duple
!!!AIN: vox
!!!EED: Helmut Schaffrath
!!!EEV: 1.0
*-
